!! Generated by translation program from file /huron/bach/bg/keybd/0862/stage2/01/03
!! 
!! 
!! 
!! 01/18/94 W. Hewlett
!! WK#:862       MV#:1
!! Bach Gesellschaft xiv   
!! WTC I: Prelude and Fugue in A flat major
!! Prelude XVII. 
!! Track 3
!! 1 1 
!! Group memberships: sound 
!! sound: part 3 of 3
!! Generated by translation program from file /huron/bach/bg/keybd/0862/stage2/01/02
!! 
!! 
!! 
!! 01/18/94 W. Hewlett
!! WK#:862       MV#:1
!! Bach Gesellschaft xiv   
!! WTC I: Prelude and Fugue in A flat major
!! Prelude XVII. 
!! Track 2
!! 1 1 
!! Group memberships: sound 
!! sound: part 2 of 3 
!! Generated by translation program from file /huron/bach/bg/keybd/0862/stage2/01/01
!! 
!! 
!! 
!! 01/18/94 W. Hewlett
!! WK#:862       MV#:1
!! Bach Gesellschaft xiv   
!! WTC I: Prelude and Fugue in A flat major
!! Prelude XVII. 
!! Track 1
!! 1 1 
!! Group memberships: sound 
!! sound: part 1 of 3 
**kern	**kern	**kern
*tb16	*tb16	*tb16
!! Initial conversion from stage 1 to stage 2
!! Initial conversion from stage 1 to stage 2
!! Initial conversion from stage 1 to stage 2
4e- 4c 4A-	2.r	8r
.	.	16a-
.	.	16g
4r	.	8a-
.	.	8cc
4r	.	8e-
.	.	8a-
=2	=2	=2
4e- 4B- 4G	2.r	8r
.	.	16b-
.	.	16a-
4r	.	8b-
.	.	8dd-
4r	.	8e-
.	.	8b-
=3	=3	=3
8r	4r	4cc
16A-	.	.
16G	.	.
8A-	4ee- 4cc	4aa-
8c	.	.
8E-	8r	8r
8A-	8cc	8ee-
=4	=4	=4
8r	4b-	4dd-
16B-	.	.
16A-	.	.
8B-	4r	4gg
8d-	.	.
8E-	8r	8r
8B-	8dd- 8b-	8gg
=5	=5	=5
8r	4ee- 4a-	4aa-
16c	.	.
16B-	.	.
8c	4r	4ee-
8e-	.	.
8A-	8r	8r
8c	8b-	8ee-
=6	=6	=6
4F	4a-	8ee-
.	.	16aa-
.	.	16gg
4f	4r	8aa-
.	.	8ff
4r	4r	8cc
.	.	8ee-
=7	=7	=7
8r	4b-	4dd-
16B-	.	.
16A-	.	.
8B-	4r	4aa-
8d-	.	.
8G	8r	8r
8B-	8a-	8dd-
=8	=8	=8
4E-	4g	8dd-
.	.	16bb-
.	.	16aa-
4e-	4r	8bb-
.	.	8gg
4r	8r	8dd-
.	8g	8bb- 8dd-
=9	=9	=9
8r	4a-	4cc
16A-	.	.
16G	.	.
8A-	4r	16r
.	.	16ee-
8c	.	16ff
.	.	16gg
8F	4r	16aa-
.	.	16ff
8A-	.	16dd
.	.	16ff
=10	=10	=10
8D	2.r	4b-[
16G	.	.
16F	.	.
8G	.	16b-]
.	.	16dd
8B-	.	16ee-
.	.	16ff
8E-	.	16gg
.	.	16ee-
8G	.	16cc
.	.	16ee-
=11	=11	=11
8C	2.r	16a-
.	.	16b-
16F	.	16g
16E-	.	16b-
8F	.	16a-
.	.	16cc
8A-	.	16dd
.	.	16ee-
8D	.	16ff
.	.	16dd
8F	.	16b-
.	.	16dd
=12	=12	=12
8BB-	2.r	16g
.	.	16a-
16E-	.	16f
16D	.	16a-
8E-	.	16g
.	.	16b-
8G	.	16cc
.	.	16dd
8C	.	16ee-
.	.	16cc
8E-	.	16a-
.	.	16cc
=13	=13	=13
8AA-	2.r	16f
.	.	16ee-
16F	.	16dd
16E-	.	16ee-
8F	.	16a-
.	.	16ee-
8A-	.	16dd
.	.	16ee-
8D	.	16f
.	.	16ee-
8F	.	16dd
.	.	16ee-
=14	=14	=14
8BB-	2.r	16g
.	.	16ee-
16G	.	16dd
16F	.	16ee-
8G	.	16b-
.	.	16ee-
8B-	.	16dd
.	.	16ee-
8E-	.	16g
.	.	16ee-
8G	.	16dd
.	.	16ee-
=15	=15	=15
8C	2.r	16a-
.	.	16ee-
16A-	.	16dd-
16G	.	16ee-
8A-	.	16cc
.	.	16ee-
8c	.	16b-
.	.	16ee-
8F	.	16a-
.	.	16ee-
8A-	.	16g
.	.	16ee-
=16	=16	=16
8D	2.r	16f
.	.	16ee-
8F	.	16g
.	.	16ee-
8BB-	.	16a-
.	.	16dd
8D	.	16ee-
.	.	16ff
8E-	.	16g
.	.	16b-
8C	.	16a-
.	.	16cc
=17	=17	=17
8GG	2r	16b-
.	.	16ee-
8FF	.	16dd
.	.	16cc
8GG	.	16b-
.	.	16a-
8AA-	.	16b-
.	.	16cc
4BB-	4d	8.f
.	.	16e-
=18	=18	=18
8r	4e-	4e-
16E-	.	.
16D	.	.
8E-	4b- 4g	4ee-
8G	.	.
8BB-	8r	8r
8E-	8g	8b-
=19	=19	=19
8r	4f	4a-
16F	.	.
16E-	.	.
8F	4r	4dd
8A-	.	.
8BB-	8r	8r
8F	8a- 8f	8dd
=20	=20	=20
4G	8b- 8g 8e-	8ee-
.	8r	16e-
.	.	16d
8r	4r	8e-
16E-	.	8g
16F	.	.
16G	4r	8B-
16F	.	.
16G	.	8e-
16E-	.	.
=21	=21	=21
8B-	2.r	8r
8BB-	.	16f
.	.	16e-
8r	.	8f
16BB-	.	8a-
16C	.	.
16D	.	8B-
16C	.	.
16D	.	8f
16BB-	.	.
=22	=22	=22
8E-	2.r	8g
8EE-	.	16b-
.	.	16a-
8r	.	8b-
16d-	.	8ee-
16c	.	.
16B-	.	8g
16c	.	.
16A-	.	8b-
16B-	.	.
=23	=23	=23
16G	2.r	8e-
16A-	.	.
16F	.	16g
16G	.	16f
16E-	.	8g
16F	.	.
16D-	.	8b-
16E-	.	.
16C	.	8e-
16D-	.	.
16BB-	.	8g
16C	.	.
=24	=24	=24
8AA-	2.r	8c
16e-	.	8r
16d-	.	.
8e-	.	8r
8a-	.	16gg-
.	.	16ff
8c	.	16ee-
.	.	16ff
8e-	.	16dd-
.	.	16ee-
=25	=25	=25
8A-	2.r	16cc
.	.	16dd-
16c	.	16b-
16B-	.	16cc
8c	.	16a-
.	.	16b-
8e-	.	16g-
.	.	16a-
8A-	.	16f
.	.	16g-
8c	.	16e-
.	.	16f
=26	=26	=26
4F[	2.r	8d-
.	.	16dd-
.	.	16cc
16F]	.	8dd-
16A-	.	.
16B-	.	8ff
16c	.	.
16d-	.	8b-
16B-	.	.
16G	.	8dd-
16B-	.	.
=27	=27	=27
4E-[	2.r	8g
.	.	16cc
.	.	16b-
16E-]	.	8cc
16G	.	.
16A-	.	8ee-
16B-	.	.
16c	.	8a-
16A-	.	.
16F	.	8cc
16A-	.	.
=28	=28	=28
16D-	2.r	8f
16E-	.	.
16C	.	16b-
16E-	.	16a-
16D-	.	8b-
16F	.	.
16G	.	8dd-
16A-	.	.
16B-	.	8g
16G	.	.
16E-	.	8b-
16G	.	.
=29	=29	=29
16C	2.r	8e-
16D-	.	.
16BB-	.	16a-
16D-	.	16g
16C	.	8a-
16E-	.	.
16F	.	8cc
16G	.	.
16A-	.	8f
16F	.	.
16D-	.	8a-
16F	.	.
=30	=30	=30
16BB-	2.r	8d-
16A-	.	.
16G	.	16b-
16A-	.	16a-
16D-	.	8b-
16A-	.	.
16G	.	8dd-
16A-	.	.
16BB-	.	8g
16A-	.	.
16G	.	8b-
16A-	.	.
=31	=31	=31
16C	2.r	8e-
16A-	.	.
16G	.	16cc
16A-	.	16b-
16E-	.	8cc
16A-	.	.
16G	.	8ee-
16A-	.	.
16C	.	8a-
16A-	.	.
16G	.	8cc
16A-	.	.
=32	=32	=32
16D-	2.r	8f
16A-	.	.
16G-	.	16dd-
16A-	.	16cc
16F	.	8dd-
16A-	.	.
16E-	.	8ff
16A-	.	.
16D-	.	8b-
16A-	.	.
16C	.	8dd-
16A-	.	.
=33	=33	=33
16BB-	2.r	8g
16D-	.	.
16C	.	8b-
16E-	.	.
16D-	.	8e-
16F	.	.
16E-	.	8g
16D-	.	.
16C	.	4a-[
16E-	.	.
16D-	.	.
16F	.	.
=34	=34	=34
8E-	4r	16a-]
.	.	16g
16F	.	16a-
16D-	.	16b-
8E-	2g	4.b-
8D-	.	.
8E-	.	.
8EE-	.	8a-
=35	=35	=35
4AA-	4a-	8a-
.	.	16ee-
.	.	16dd-
4A-	4r	8ee-
.	.	8cc
4r	4r	8g
.	.	8b-
=36	=36	=36
8r	4f	4a-
16F	.	.
16E-	.	.
8F	4r	4ee-[
8A-	.	.
8D-	4r	16ee-]
.	.	16g-
8F	.	16f
.	.	16e-
=37	=37	=37
4BB-	2.r	8d-
.	.	16dd-
.	.	16cc
4A-	.	8dd-
.	.	8b-
4r	.	8f
.	.	8a-
=38	=38	=38
8r	4e-	4g
16E-	.	.
16D-	.	.
8E-	4r	4dd-[
8G	.	.
8C	4r	16dd-]
.	.	16f
8E-	.	16e-
.	.	16d-
=39	=39	=39
16AA-	2.r	16c
16A-	.	16cc
16G	.	16b-
16A-	.	16cc
16F	.	16a-
16A-	.	16cc
16E-	.	16g
16A-	.	16cc
16D-	.	16f
16A-	.	16cc
16C	.	16e-
16A-	.	16cc
=40	=40	=40
16BB-	2.r	16d-
16B-	.	16dd-
16A-	.	16cc
16B-	.	16dd-
16G	.	16b-
16B-	.	16dd-
16F	.	16a-
16B-	.	16dd-
16E-	.	16g
16B-	.	16dd-
16D-	.	16f
16B-	.	16dd-
=41	=41	=41
8C	2.r	8e-
8c	.	16a-
.	.	16g
8r	.	8a-
16F	.	8cc
16G	.	.
16A-	.	8f
16G	.	.
16A-	.	8a-
16F	.	.
=42	=42	=42
8B-	2.r	8dd-
8BB-	.	16g
.	.	16f
8r	.	8g
16E-	.	8b-
16F	.	.
16G	.	8e-
16F	.	.
16G	.	8g
16E-	.	.
=43	=43	=43
8A-	8r	8cc
8D-	8f 8d-	8a-
8E-	2e- 2B-	4a-
8D-	.	.
8E-	.	4g
8EE-	.	.
=44	=44	=44
2.AA-	2.e- 0..c	2.a-
*-	*-	*-
